fs/eraser_segment_24_filled.svg

<svg viewBox="0 0 24 24" fill="none" xmlns="http://www.w3.org/2000/svg" height="1em" width="1em">
  <path d="M12.6511 2.63787C13.5372 1.76012 14.9682 1.77057 15.8413 2.66117L20.7514 7.66943C21.612 8.54731 21.6087 9.95347 20.7439 10.8273L12.1614 19.4995H16.1145C16.433 18.4853 17.3806 17.7495 18.5 17.7495C19.8807 17.7495 21 18.8688 21 20.2495C21 21.6303 19.8807 22.7495 18.5 22.7495C17.3806 22.7495 16.433 22.0138 16.1145 20.9995H9.84815C9.24205 21.0298 8.62571 20.8163 8.15877 20.3577L3.05972 15.3502C2.16448 14.4711 2.16133 13.0295 3.05274 12.1464L12.6511 2.63787ZM9.80042 19.4995C9.97142 19.4847 10.1382 19.4114 10.2684 19.2799L11.7363 17.7966L5.63726 11.6975L4.1084 13.2121C3.81126 13.5064 3.81231 13.9869 4.11073 14.28L9.20978 19.2875C9.35955 19.4346 9.55542 19.506 9.75 19.5022V19.4995H9.80042Z" fill="#212121"/>
</svg>

<svg viewBox="0 0 24 24" fill="none" xmlns="http://www.w3.org/2000/svg" height="1em" width="1em">
  <path d="M12.651 2.638a2.25 2.25 0 0 1 3.19.023l4.91 5.008a2.25 2.25 0 0 1-.007 3.158L12.16 19.5h3.954a2.501 2.501 0 1 1 0 1.5H9.848a2.244 2.244 0 0 1-1.69-.642L3.06 15.35a2.25 2.25 0 0 1-.007-3.204l9.598-9.508ZM9.801 19.5a.747.747 0 0 0 .467-.22l1.468-1.483-6.099-6.1-1.529 1.515a.75.75 0 0 0 .003 1.068l5.099 5.008c.15.147.345.218.54.214V19.5h.05Z" fill="#212121"/>
</svg>
